src/icons/scout-external-person.svg

<svg xmlns="http://www.w3.org/2000/svg" width="512" height="512" viewBox="0 0 512 512">
    <path d="M358.9 124c42.6 0 54.6 33.8 53.5 46.6-.9 10.3-1.3 14.8-1.9 19.9-.6 5.1 3.6 5.9 1.1 16.5-4.7 20.2-6.3 11.9-8.5 24.5-5.5 32-14.2 22.3-14.2 39.2 0 26-2.4 19.1 36.2 33.3 39.2 14.4 48.4 23.2 49.5 29.8 1.289 7.824 1.391 22.087 1.4 24.306v.294h-.1v-.1H241.7s0-16.1 1.4-24.5c1-6.6 10.3-15.5 49.5-29.8 38.5-14.1 36.2-7.2 36.2-33.3 0-16.9-8.7-7-14.2-39.2-2.2-12.7-3.8-4.3-8.5-24.5-2.5-10.6 1.6-11.4 1.1-16.5-.5-5-.9-9.6-1.9-19.9-1.3-12.8 11-46.6 53.6-46.6zM131 154.5c52.5 0 95 42.6 95 95s-42.6 95-95 95-95-42.6-95-95 42.5-95 95-95zm2.2 14.1h-3.4c2.6 5.3-2.3 7.9-3.7 8.2-3.3 0-4.3-2.7-7.1-2.1-1.9.5-2.7-1.6-4.4-.6-1.5 1.1-5.6 3.2-5.9 5.1-1.1 5.1 2.6 5.3 5.9 2.3 2.6-2.6 7.4-4.8 10.7-2.2 2.4 2.1 1.9 3.9 1.9 5.8 0 2-.7 7.4-4.1 6.7-1.6-.4-2.7-2.3-4.4-1.1-3.5 3-7.5 2.3-12.2 3.7-4 .5-7 2.4-10.9 3.8-3.5 1.2-4.5 1.8-5 5.2-.1 1.1-.1 5.7-1.2 6.3-2.3.8-3.5-9.1-9.4-8.4-5.2.6-12.9 5.7-10.7 12 .8 2.2 12.1 1.1 4.4 5.9-.8.5.6 7 .6 8.2.6 3.6 5.7 7.8 9.1 4.4 2.6-2.8 2.4-2.4 5.8-1 6.3 3.3 14 6.2 19.1 11.4 2.6 2.6 4.2 10.5 7.6 12.1 3.9 1.9 8 1.9 11 5.6 2.4 3.1-1.1 8.2-3.6 9.8-1.5.8-5.1 10.3-6.7 12.5-.8 1.7-5 2.4-6.6 2.8-1.3.1-3.2 3.5-3.9 4.5-2.8 2.9-3.4 5.8-7.1 8.3-7.8 5.1-9.3 9.9-7.7 18.7.7 3.5 2.4 5.3 4.7 6.7 1 .4 2 1 3.4 1.5 1.2.5 2.8 1.1 4.4 1.6 5.7 2.1 11.9 3.6 18.1 4.3 11.7 1.4 23.9.1 35.2-3.6 6.4-2.1 12.5-5 18.1-8.7 2.4-1.6 2.9-6.4 4.5-10 3.3-6.8-.7-14.1 5.1-19.9 5.3-5.6 1.4-7.9 1.4-14.4 0-4.4 3.4-7.4 1.8-12.1-.7-1.5-3.1 1.3-3.9-.3-2-3-8.8-.7-11.8-1.1-5.6-.9-10.1-6.1-14-9.8-2.2-2.1-.1-8.7.4-11 1.5-6.3-.2-14.2 8-16.1 2.1-.4 2.5-3.8 4.4-4.5 2-.6 4.1-1.4 6.3-1.8 3.8-.5 7.2 1.1 10.9 1.1 4.2.2 6.3 2.2 9.6 4.7 3 2.5 5 1.3 8.9 2.1 2.9 0 .6-2.4-.4-3.6-1.1-.8-2.6-.7-3.6-.8-6.8-1.6-9.7-9.2-15.3-12.5-2.3-1.3-3.8-.9-4.5-.1-.3.5.4 5.1.4 5.2-.3 1.4-4.3 1.9-5.5 2.2-3.7.8-12.3-7.6-6.5-9.5 1.9-.7 11.7-1.9 10.3-6.3-1.3-2.9.7-5.7-2.5-6.1-3.3-.4-2.8-2.9-6.2-3.3-2.1-.5-2.2-4.7-2.2-6.1-.1-3.8.7-2.8 3.9-3.2-7.5-4.8-15.6-8.1-24.1-10.3-.6 1.1-2.4 5-3.6 5.1-2.1.4-2.8.2-4 1.4-3.8 4.2-6.8 12.1-10.5 3-1.8-4.7 1.9-8 .7-11.7zm-71.4 38.1c-18.5 29.7-15.3 68.5 6.7 95 .2.5.5.7.8 1 1.3 1.5 2.7 3 4.1 4.4 1.4 1.4 2.8 2.8 4.3 4l.6.6c.3.2.7.5 1.4.6 3.2 2.6 6.4 4.9 9.8 7-9.1-9-9.8-21-9.1-33.1.4-3.5 1.2-6.8 1.6-10.2.3-1.1-1.9-3.1-1.9-5 0-4.2.1-2.2-3.2-5.6-1.9-1.9-4.2-4.4-5.2-6.9-2.8-6.8.4-12.8 4.3-18.2 3.8-6-3.1-8.6-4.3-13.8-.6-2.3-3.2-2.3-2.8-5.1.4-2.7-1.7-2.2-3.9-3.7-4.8-3.3-.6-8.4-3.2-11zM167 192.1c0-.9-1.4-3.2 1.1-2.8 1.9.7 4.9 4 5.9 5.6.8 1.5 2.6 5.5 1.2 6.5-1.3.8-4 .8-5.4-2.2-1.4-3-.3-4.4-2.2-3.7-2.1.8-3.1-1.5-2.8-1.8.5-.5 1.5-1 2.2-1.6z"/>
</svg>

<?xml version="1.0" encoding="UTF-8"?>
<svg width="512px" height="512px" viewBox="0 0 512 512" version="1.1" xmlns="http://www.w3.org/2000/svg" xmlns:xlink="http://www.w3.org/1999/xlink">
    <!-- Generator: Sketch 62 (91390) - https://sketch.com -->
    <title>scout-external-person</title>
    <desc>Created with Sketch.</desc>
    <g id="scout-external-person" stroke="none" stroke-width="1" fill="none" fill-rule="evenodd">
        <path d="M358.9,124 C401.5,124 413.5,157.8 412.4,170.6 C411.5,180.9 411.1,185.4 410.5,190.5 C409.9,195.6 414.1,196.4 411.6,207 C406.9,227.2 405.3,218.9 403.1,231.5 C397.6,263.5 388.9,253.8 388.9,270.7 C388.9,296.7 386.5,289.8 425.1,304 C464.3,318.4 473.5,327.2 474.6,333.8 C475.888636,341.623864 475.991142,355.886725 475.999295,358.106311 L476,358.4 L475.9,358.4 L475.9,358.3 L241.7,358.3 C241.7,358.3 241.7,342.2 243.1,333.8 C244.1,327.2 253.4,318.3 292.6,304 C331.1,289.9 328.8,296.8 328.8,270.7 C328.8,253.8 320.1,263.7 314.6,231.5 C312.4,218.8 310.8,227.2 306.1,207 C303.6,196.4 307.7,195.6 307.2,190.5 C306.7,185.5 306.3,180.9 305.3,170.6 C304,157.8 316.3,124 358.9,124 Z M131,154.5 C183.5,154.5 226,197.1 226,249.5 C226,301.9 183.4,344.5 131,344.5 C78.6,344.5 36,301.9 36,249.5 C36,197.1 78.5,154.5 131,154.5 Z M133.2,168.6 L129.8,168.6 C132.4,173.9 127.5,176.5 126.1,176.8 C122.8,176.8 121.8,174.1 119,174.7 C117.1,175.2 116.3,173.1 114.6,174.1 C113.1,175.2 109,177.3 108.7,179.2 C107.6,184.3 111.3,184.5 114.6,181.5 C117.2,178.9 122,176.7 125.3,179.3 C127.7,181.4 127.2,183.2 127.2,185.1 C127.2,187.1 126.5,192.5 123.1,191.8 C121.5,191.4 120.4,189.5 118.7,190.7 C115.2,193.7 111.2,193 106.5,194.4 C102.5,194.9 99.5,196.8 95.6,198.2 C92.1,199.4 91.1,200 90.6,203.4 C90.5,204.5 90.5,209.1 89.4,209.7 C87.1,210.5 85.9,200.6 80,201.3 C74.8,201.9 67.1,207 69.3,213.3 C70.1,215.5 81.4,214.4 73.7,219.2 C72.9,219.7 74.3,226.2 74.3,227.4 C74.9,231 80,235.2 83.4,231.8 C86,229 85.8,229.4 89.2,230.8 C95.5,234.1 103.2,237 108.3,242.2 C110.9,244.8 112.5,252.7 115.9,254.3 C119.8,256.2 123.9,256.2 126.9,259.9 C129.3,263 125.8,268.1 123.3,269.7 C121.8,270.5 118.2,280 116.6,282.2 C115.8,283.9 111.6,284.6 110,285 C108.7,285.1 106.8,288.5 106.1,289.5 C103.3,292.4 102.7,295.3 99,297.8 C91.2,302.9 89.7,307.7 91.3,316.5 C92,320 93.7,321.8 96,323.2 C97,323.6 98,324.2 99.4,324.7 C100.6,325.2 102.2,325.8 103.8,326.3 C109.5,328.4 115.7,329.9 121.9,330.6 C133.6,332 145.8,330.7 157.1,327 C163.5,324.9 169.6,322 175.2,318.3 C177.6,316.7 178.1,311.9 179.7,308.3 C183,301.5 179,294.2 184.8,288.4 C190.1,282.8 186.2,280.5 186.2,274 C186.2,269.6 189.6,266.6 188,261.9 C187.3,260.4 184.9,263.2 184.1,261.6 C182.1,258.6 175.3,260.9 172.3,260.5 C166.7,259.6 162.2,254.4 158.3,250.7 C156.1,248.6 158.2,242 158.7,239.7 C160.2,233.4 158.5,225.5 166.7,223.6 C168.8,223.2 169.2,219.8 171.1,219.1 C173.1,218.5 175.2,217.7 177.4,217.3 C181.2,216.8 184.6,218.4 188.3,218.4 C192.5,218.6 194.6,220.6 197.9,223.1 C200.9,225.6 202.9,224.4 206.8,225.2 C209.7,225.2 207.4,222.8 206.4,221.6 C205.3,220.8 203.8,220.9 202.8,220.8 C196,219.2 193.1,211.6 187.5,208.3 C185.2,207 183.7,207.4 183,208.2 C182.7,208.7 183.4,213.3 183.4,213.4 C183.1,214.8 179.1,215.3 177.9,215.6 C174.2,216.4 165.6,208 171.4,206.1 C173.3,205.4 183.1,204.2 181.7,199.8 C180.4,196.9 182.4,194.1 179.2,193.7 C175.9,193.3 176.4,190.8 173,190.4 C170.9,189.9 170.8,185.7 170.8,184.3 C170.7,180.5 171.5,181.5 174.7,181.1 C167.2,176.3 159.1,173 150.6,170.8 C150,171.9 148.2,175.8 147,175.9 C144.9,176.3 144.2,176.1 143,177.3 C139.2,181.5 136.2,189.4 132.5,180.3 C130.7,175.6 134.4,172.3 133.2,168.6 L133.2,168.6 Z M61.8,206.7 C43.3,236.4 46.5,275.2 68.5,301.7 C68.7,302.2 69,302.4 69.3,302.7 C70.6,304.2 72,305.7 73.4,307.1 C74.8,308.5 76.2,309.9 77.7,311.1 L77.7,311.1 L78.3,311.7 C78.6,311.9 79,312.2 79.7,312.3 C82.9,314.9 86.1,317.2 89.5,319.3 C80.4,310.3 79.7,298.3 80.4,286.2 C80.8,282.7 81.6,279.4 82,276 C82.3,274.9 80.1,272.9 80.1,271 C80.1,266.8 80.2,268.8 76.9,265.4 C75,263.5 72.7,261 71.7,258.5 C68.9,251.7 72.1,245.7 76,240.3 C79.8,234.3 72.9,231.7 71.7,226.5 C71.1,224.2 68.5,224.2 68.9,221.4 C69.3,218.7 67.2,219.2 65,217.7 C60.2,214.4 64.4,209.3 61.8,206.7 Z M167,192.1 C167,191.2 165.6,188.9 168.1,189.3 C170,190 173,193.3 174,194.9 C174.8,196.4 176.6,200.4 175.2,201.4 C173.9,202.2 171.2,202.2 169.8,199.2 C168.4,196.2 169.5,194.8 167.6,195.5 C165.5,196.3 164.5,194 164.8,193.7 C165.3,193.2 166.3,192.7 167,192.1 Z" id="Combined-Shape" fill="#000000" fill-rule="nonzero"></path>
    </g>
</svg>
